X:1
T:Vienna, 77.77
T:Justin Heinrich Knecht, 1797
T:Vienna, 77.77
T:Public Domain
C:Justin Heinrich Knecht, 1797
Z:Public Domain
%%score ( 1 2 ) ( 3 4 )
L:1/8
M:4/4
K:G
V:1 treble 
V:2 treble 
V:3 bass 
V:4 bass 
V:1
 [GB]2 [FA]2 [EG]2 [EB]2 | [Fd]2 [Dc]2 [DB]4 | [CE]2 [CF]2 [DG]2 [EA]2 | [DF]2 [^CE]2 D4 | %4
 [B,G]2 [DF]2 [CE]2 [DG]2 | [Ec]2 [GB]2 [FA]4 | [Gd]2 [Ac]2 [GB]2 [EA]2 | [DG]2 [DF]2 [DG]4 |] %8
V:2
 x8 | x8 | x8 | x4 D4 | x8 | x8 | x8 | x8 |] %8
V:3
 [G,D]2 [D,D]2 [E,B,]2 [E,G,]2 | [D,A,]2 [F,A,]2 G,4 | [C,G,]2 [A,,A,]2 [B,,G,]2 [^C,E,]2 | %3
 [D,A,]2 [A,,A,]2 [D,F,]4 | [E,G,]2 [B,,B,]2 [C,G,]2 [B,,B,]2 | [A,,C]2 [B,,D]2 [D,D]4 | %6
 [B,,D]2 [F,,D]2 [G,,D]2 [C,C]2 | [D,B,]2 [D,A,]2 [G,B,]4 |] %8
V:4
 x8 | x4 G,4 | x8 | x8 | x8 | x8 | x8 | x8 |] %8

